src/assets/icon/add-friend.svg

<svg width="100" height="100" viewBox="0 0 100 100" fill="none" xmlns="http://www.w3.org/2000/svg">
<g id="add-friend">
<path id="Subtract" fill-rule="evenodd" clip-rule="evenodd" d="M32.3007 26.0025C31.6391 15.0734 30.7334 0.114739 50 0C69.2665 0.114739 68.3609 15.0734 67.6992 26.0025C67.5878 27.8437 67.4832 29.5706 67.4832 31.0929C67.4832 41.6508 50 46.5 50 46.5C50 46.5 32.5167 41.6508 32.5167 31.0929C32.5167 29.5706 32.4122 27.8437 32.3007 26.0025V26.0025ZM18.7003 47.575V22C8.10374 22.0631 8.60183 30.2904 8.96575 36.3014C9.02706 37.314 9.08456 38.2638 9.08456 39.1011C9.08456 44.9079 18.7003 47.575 18.7003 47.575ZM18.7004 22C29.297 22.0631 28.7989 30.2904 28.435 36.3014L28.435 36.3014C28.3736 37.3141 28.3161 38.2638 28.3161 39.1011C28.3161 44.9079 18.7004 47.575 18.7004 47.575V22ZM19.0639 59.3253C18.8028 59.5067 18.553 59.6897 18.3139 59.8741C12.8161 64.1121 13.0001 69 13.0001 69V75.6568C8.51674 74.4408 2.60684 72.4437 0.000398283 69.85V61.6C0.000398283 61.6 -0.124593 58.2796 4.0539 55.8195C5.10714 55.1994 6.27065 54.7022 7.40676 54.2166L7.40683 54.2166C10.778 52.7759 13.9079 51.4383 13.2004 47.3C13.2004 47.3 13.7304 48.4061 15.6505 49.4302C16.9358 50.1156 18.6875 50.5965 18.7003 50.6C18.7131 50.5965 20.4649 50.1156 21.7502 49.4302C23.6702 48.4061 24.2003 47.3 24.2003 47.3C23.509 51.3431 26.4807 52.7129 29.7615 54.1173C28.705 54.6189 27.5931 55.0941 26.4663 55.5757C24.4006 56.4585 22.2851 57.3625 20.3701 58.49C19.9061 58.7632 19.4714 59.0422 19.0639 59.3253ZM29.4664 58.5757C27.4007 59.4585 25.2851 60.3625 23.3701 61.49C15.7729 65.9629 16.0001 72 16.0001 72V87C24.1188 95.0789 49.8656 99.9745 49.9996 99.9999L49.9999 100L50 100L50.0001 100L50.0004 99.9999C50.064 99.9879 55.8865 98.8808 62.8577 96.8585C55.1884 92.589 50 84.4004 50 75C50 65.9556 54.8028 58.033 61.9971 53.6434C60.2859 51.8261 59.4105 49.4476 59.9999 46C59.9999 46 59.0362 48.0112 55.5452 49.873C53.2078 51.1197 50.0218 51.994 50 52C49.9767 51.9936 46.7917 51.1194 44.4549 49.873C40.9638 48.0112 40.0001 46 40.0001 46C41.2866 53.5242 35.5957 55.9562 29.4664 58.5757ZM99.5518 70.2627C97.3767 58.9228 87.5401 50.306 75.6377 50.008C75.9085 49.2603 75.9835 48.3745 75.7998 47.3C75.7998 47.3 76.3298 48.4061 78.2499 49.4302C79.5351 50.1156 81.2869 50.5965 81.2997 50.6C81.3125 50.5965 83.0642 50.1156 84.3495 49.4302C86.2696 48.4061 86.7996 47.3 86.7996 47.3C86.0921 51.4383 89.222 52.7759 92.5932 54.2166L92.5934 54.2167C93.7294 54.7022 94.8929 55.1994 95.9461 55.8195C100.125 58.2796 99.9996 61.6 99.9996 61.6V69.85C99.8596 69.9893 99.7101 70.1269 99.5518 70.2627ZM81.2997 47.575C81.2997 47.575 90.9155 44.9079 90.9155 39.1011C90.9155 38.2638 90.973 37.314 91.0343 36.3014C91.3982 30.2904 91.8963 22.0631 81.2997 22V47.575ZM81.2996 47.575C81.2996 47.575 71.6839 44.9079 71.6839 39.1011C71.6839 38.2638 71.6264 37.314 71.5651 36.3014C71.2011 30.2904 70.703 22.0631 81.2996 22V47.575Z" fill="url(#paint0_linear_237_72860)"/>
<g id="Group 278">
<path id="Subtract_2" fill-rule="evenodd" clip-rule="evenodd" d="M75 95C86.0457 95 95 86.0457 95 75C95 63.9543 86.0457 55 75 55C63.9543 55 55 63.9543 55 75C55 86.0457 63.9543 95 75 95ZM78.6 66.6C78.6 64.6118 76.9882 63 75 63C73.0118 63 71.4 64.6118 71.4 66.6V71.4H66.6C64.6118 71.4 63 73.0118 63 75C63 76.9882 64.6118 78.6 66.6 78.6H71.4V83.4C71.4 85.3882 73.0118 87 75 87C76.9882 87 78.6 85.3882 78.6 83.4V78.6H83.4C85.3882 78.6 87 76.9882 87 75C87 73.0118 85.3882 71.4 83.4 71.4H78.6V66.6Z" fill="url(#paint1_linear_237_72860)"/>
</g>
</g>
<defs>
<linearGradient id="paint0_linear_237_72860" x1="50" y1="0" x2="50" y2="100" gradientUnits="userSpaceOnUse">
<stop stop-color="#AB750F"/>
<stop offset="0.516" stop-color="#D8A956"/>
<stop offset="1" stop-color="#AB750F"/>
</linearGradient>
<linearGradient id="paint1_linear_237_72860" x1="75" y1="55" x2="75" y2="95" gradientUnits="userSpaceOnUse">
<stop stop-color="#AB750F"/>
<stop offset="0.516" stop-color="#D8A956"/>
<stop offset="1" stop-color="#AB750F"/>
</linearGradient>
</defs>
</svg>

<svg xmlns="http://www.w3.org/2000/svg" width="100" height="100" fill="none" xmlns:v="https://vecta.io/nano"><g fill-rule="evenodd"><path d="M32.301 26.003C31.639 15.073 30.733.115 50 0c19.266.115 18.361 15.073 17.699 26.003-.111 1.841-.216 3.568-.216 5.09C67.483 41.651 50 46.5 50 46.5s-17.483-4.849-17.483-15.407c0-1.522-.105-3.249-.216-5.09h0zM18.7 47.575V22c-10.597.063-10.098 8.29-9.735 14.301.061 1.013.119 1.962.119 2.8 0 5.807 9.616 8.474 9.616 8.474zM18.7 22c10.597.063 10.099 8.29 9.735 14.301h0c-.061 1.013-.119 1.962-.119 2.8 0 5.807-9.616 8.474-9.616 8.474V22zm.364 37.325a18.68 18.68 0 0 0-.75.549C12.816 64.112 13 69 13 69v6.657C8.517 74.441 2.607 72.444 0 69.85V61.6s-.125-3.32 4.054-5.781c1.053-.62 2.217-1.117 3.353-1.603h0c3.371-1.441 6.501-2.778 5.794-6.917 0 0 .53 1.106 2.45 2.13 1.285.685 3.037 1.166 3.05 1.17.013-.004 1.765-.484 3.05-1.17 1.92-1.024 2.45-2.13 2.45-2.13-.691 4.043 2.28 5.413 5.561 6.817-1.057.502-2.168.977-3.295 1.458-2.066.883-4.181 1.787-6.096 2.914a20.66 20.66 0 0 0-1.306.835zm10.403-.75c-2.066.883-4.181 1.787-6.096 2.914C15.773 65.963 16 72 16 72v15c8.119 8.079 33.866 12.975 34 13h0 0 0 0c.064-.012 5.886-1.119 12.857-3.141C55.188 92.589 50 84.4 50 75c0-9.044 4.803-16.967 11.997-21.357C60.286 51.826 59.411 49.448 60 46c0 0-.964 2.011-4.455 3.873C53.208 51.12 50.022 51.994 50 52c-.023-.006-3.208-.881-5.545-2.127C40.964 48.011 40 46 40 46c1.286 7.524-4.404 9.956-10.534 12.576zm70.085 11.687c-2.175-11.34-12.012-19.957-23.914-20.255.271-.748.346-1.634.162-2.708 0 0 .53 1.106 2.45 2.13 1.285.685 3.037 1.166 3.05 1.17.013-.004 1.764-.484 3.05-1.17 1.92-1.024 2.45-2.13 2.45-2.13-.707 4.138 2.422 5.476 5.794 6.917h0c1.136.485 2.299.983 3.353 1.603C100.125 58.28 100 61.6 100 61.6v8.25c-.14.139-.29.277-.448.413zM81.3 47.575s9.616-2.667 9.616-8.474c0-.837.058-1.787.119-2.8.364-6.011.862-14.238-9.735-14.301v25.575zm0 0s-9.616-2.667-9.616-8.474c0-.837-.057-1.787-.119-2.8C71.201 30.29 70.703 22.063 81.3 22v25.575z" fill="url(#A)"/><path d="M75 95c11.046 0 20-8.954 20-20s-8.954-20-20-20-20 8.954-20 20 8.954 20 20 20zm3.6-28.4a3.6 3.6 0 0 0-7.2 0v4.8h-4.8a3.6 3.6 0 0 0 0 7.2h4.8v4.8a3.6 3.6 0 0 0 7.2 0v-4.8h4.8a3.6 3.6 0 0 0 0-7.2h-4.8v-4.8z" fill="url(#B)"/></g><defs><linearGradient id="A" x1="50" y1="0" x2="50" y2="100" gradientUnits="userSpaceOnUse"><stop stop-color="#ab750f"/><stop offset=".516" stop-color="#d8a956"/><stop offset="1" stop-color="#ab750f"/></linearGradient><linearGradient id="B" x1="75" y1="55" x2="75" y2="95" gradientUnits="userSpaceOnUse"><stop stop-color="#ab750f"/><stop offset=".516" stop-color="#d8a956"/><stop offset="1" stop-color="#ab750f"/></linearGradient></defs></svg>
